X: 042
T: Dicky Gossip
R: reel
M: C|
L: 1/8
Z: 2012 John Chambers <jc:trillian.mit.edu>
B: J. Anderson "Budget of Strathspeys, Reels and Country Dances" (Early 1800s) p.4 #2
F: http://imslp.org/wiki/Anderson%27s_Budget_of_Strathspeys,_Reels_and_Country_Dances_(Various)
K: D
A |\
(df).d.f (ec).A.c | dBGB AFDF | GBA=c Bged | dcBA A2(dc) |
(dA).A.A (eA).A.A | (fd).g.e (aA).A.A | BdcB AGFE | D2D2 D3 |]
A |\
dAdA FAFD | BGEG BGdB | gefd ecdB | (ce)(ed) (cB)(AG) |
(Fd).d.d (Ge)ee | (Af)ff (Bg).g.g | afdf Bgec | d2d2 d3 ||]

%%sep 2 1 500
%%sep 1 1 500

